X:1
T:The Kingdom over Yonder
T:James Henry Fillmore, Sr.
T:The Kingdom over Yonder
T:Public Domain
T:Public Domain
T:Public Domain
C:James Henry Fillmore, Sr.
Z:Public Domain
%%score ( 1 2 ) ( 3 4 )
L:1/8
M:4/4
K:A
V:1 treble 
V:2 treble 
V:3 bass 
V:4 bass 
V:1
 [CE]2 | [Ec]3 [Ec] [DB]2 [CA]2 | [EG]2 [DF]2 [CE]2 [CE]2 | [DF]2 [DG]2 [EA]2 [FB]2 | %4
w: 1.~This|world is fair, this|life is sweet, Where|na- ture’s charms sur-|
w: 2.~I|watch on dream- y|shore and sea, The|sun- beams glance and|
w: 3.~I|hear sweet words and|ten- der vows, From|dear com- pan- ions|
 [EA]4 [EG]2 E2 | [Ec]3 [Ec] [DB]2 [CA]2 | [EG]2 [DF]2 [CE]2 [CE]2 | [DF]2 [DG]2 [EA]2 (BA) | %8
w: round us; And|and beau- ty blend|and meet Har- mo-|nious- ly a- round *|
w: quiv- er, And|how fair the day|must be That shines|a- cross the riv- *|
w: prov- ing By|ery sign af- fec-|tion knows, How ear-|nest is their lov- *|
 [EG]4 [EA]2 [EA]2 | [EG]3 [EA] [EB]2 [EB]2 | [EA]3 [EB] [Ac]2 [Ac]2 | %11
w: But bright- er|vi- sions of de-|light, Come o’er us|
w: I hear the|sea- son’s change- ful|notes, As ’round the|
w: Then muse up-|on that high- er|love, Which speaks in|
 [GB]2 [Ac]2 [Bd]2 ([ce][Bd]) | ([Ac][GB][Ac][Bd]) [GB]2 E2 | [Ec]3 [Ec] [EB]2 [EA]2 | %14
w: as we pon- der, *|That * * * bless- èd|be- yond our sight,|
w: world they wan- der, *|And * * * think what|er mu- sic floats|
w: lan- guage fond- er, *|Where * * * spir- its|and ser- aphs move,|
 [EG]2 [DF]2 [CE]2 ([CE][CE]) | [DF]2 [DG]2 [EA]2 (BA) | [EG]4 [EA]2 ||"^Refrain" [EA][EA] | %18
w: The king- dom o- *|ver yon- der. O- *|yon- der,|o- ver|
w: In~the king- dom o- *|ver yon- der. O- *|yon- der,|o- ver|
w: In~the king- dom o- *|ver yon- der. O- *|yon- der,|o- ver|
 [EG]2 [EB]4 [EB][EB] | [EA]2 [Ac]4 [Ac][Ac] | [GB]2 [Ac]2 [Bd]2 ([ce][Bd]) | %21
w: yon- der, In the|king- dom o- ver|yon- der, That bless- *|
w: yon- der, In the|king- dom o- ver|yon- der, And think *|
w: yon- der, In the|king- dom o- ver|yon- der, Where spir- *|
 ([Ac][GB][Ac][Bd]) [GB]2 E2 | [Ec]3 [Ec] [EB]2 [EA]2 | [EG]2 [DF]2 [CE]2 [CE][CE] | %24
w: èd * * * realm be-|our sight, In the|king- dom o- ver yon-|
w: what * * * grand- er|sic floats In the|king- dom o- ver yon-|
w: its * * * meet and|aphs move, In the|king- dom o- ver yon-|
 [DF]2 [DG]2 [EA]2 (BA) | [EG]4 [EA]2 |] %26
w: der. * * * *||
w: der. * * * *||
w: der. * * * *||
V:2
 x2 | x8 | x8 | x8 | x6 E2 | x8 | x8 | x6 F2 | x8 | x8 | x8 | x8 | x6 E2 | x8 | x8 | x6 F2 | x6 || %17
w: ||||warmth|||us;|||||realm|||ver||
w: ||||think|||er.|||||grand-|||ver||
w: ||||ev-|||ing;|||||meet|||ver||
 x2 | x8 | x8 | x8 | x6 E2 | x8 | x8 | x6 F2 | x6 |] %26
w: ||||yond|||||
w: ||||mu-|||||
w: ||||ser-|||||
V:3
 [A,,A,]2 | [A,,A,]3 [A,,A,] [A,,E,]2 [A,,E,]2 | [A,,E,]2 (F,G,) [A,,A,]2 [A,,A,]2 | %3
 [D,A,]2 [B,,A,]2 [C,A,]2 [D,D]2 | [E,C]4 [E,B,]2 [E,G,]2 | [A,,A,]3 [A,,A,] [A,,E,]2 [A,,E,]2 | %6
 [A,,E,]2 (F,G,) [A,,A,]2 [A,,A,]2 | [D,A,]2 [B,,B,]2 [C,A,]2 (DC) | [E,B,]4 [A,,C]2 [A,,C]2 | %9
 [E,B,]3 [E,C] [E,D]2 [E,D]2 | [A,C]3 [A,D] [A,E]2 [A,E]2 | [E,E]2 [E,E]2 [E,E]2 [E,E]2 | %12
 [E,E]4 (E,D,)([C,G,][B,,G,]) | [A,,A,]3 [A,,A,] [B,,G,]2 [C,A,]2 | %14
 (D,E,)(F,G,) A,2 ([A,,A,][A,,A,]) | [D,A,]2 [B,,B,]2 [C,A,]2 (DC) | [E,B,]4 [A,,C]2 || %17
 [A,,C][A,,C] | [E,B,]2 [E,D]4 [E,D][E,D] | [A,C]2 [A,E]4 [A,E][A,E] | %20
 [E,E]2 [E,E]2 [E,E]2 [E,E]2 | [E,E]4 (E,D,)([C,A,][B,,G,]) | [A,,A,]3 [A,,A,] [B,,G,]2 [C,A,]2 | %23
 (D,E,)F,G, A,2 [A,,A,][A,,A,] | [D,A,]2 [B,,B,]2 [C,A,]2 (DC) | [E,B,]4 [A,,C]2 |] %26
V:4
 x2 | x8 | x2 A,,2 x4 | x8 | x8 | x8 | x2 A,,2 x4 | x6 D,2 | x8 | x8 | x8 | x8 | x4 E2 x2 | x8 | %14
 A,2 A,2 A,2 x2 | x6 D,2 | x6 || x2 | x8 | x8 | x8 | x4 E2 x2 | x8 | A,2 A,2 A,2 x2 | x6 D,2 | %25
 x6 |] %26

